X:1
T:Title
%%score { ( 1 3 ) | 2 }
L:1/8
Q:1/4=106
M:4/4
K:E
V:1 treble nm="Grand Piano"
V:3 treble 
V:2 bass 
V:1
 G2 G>G =G2 ^G2 | A4 G4 | [DF]2 [DF]>[DF] [DG]2 [DF]2 | E6 z2 | B2 B>B ^A2 B2 | c4 B4 | %6
w: W.~J.~Kirkpatrick * * * *||||||
 F2 F>F G2 ^A2 | [DB]6 z2 | [FA]2 [FA]>[FA] [GB]2 [FA]2 | [FA]4 G4 | z4 z2 c2 | [GB]6 z2 | %12
w: ||||||
 [Ge]2 [Ge]>[Ge] [Ge]2 [EB]2 | [Ed]4 [Ec]4 | [EB]2 [EB]>[EB] [DB]2 D2 | E6 z2 |] %16
w: ||||
V:2
 [E,B,E]2 [E,B,E]>[E,B,E] [E,A,E]2 [E,B,E]2 | [E,CE]4 [E,B,E]4 | %2
 [B,,A,]2 [B,,A,]>[B,,A,] [B,,B,]2 [B,,A,]2 | [E,G,]6 z2 | %4
 [E,G,E]2 [E,G,E]>[E,G,E] [E,=G,E]2 [E,^G,E]2 | [E,A,E]4 [E,G,E]4 | %6
 [F,B,D]2 [F,B,D]>[F,B,D] [F,^A,E]2 [F,CE]2 | [B,,B,]6 z2 | %8
 [B,,B,]2 [B,,B,]>[B,,B,] [B,,B,]2 [B,,B,]2 | [E,B,]4 [E,B,E]4 | %10
 [A,E]2 [A,CE]>[A,CE] [A,^B,F]2 .[A,C=G]2 | [E,E]6 z2 | [E,B,]2 [E,B,]>[E,B,] [E,B,]2 [E,G,]2 | %13
 [A,,B,]4 [A,,A,]4 | [B,,G,]2 [B,,G,]>[B,,G,] [B,,F,]2 [B,,A,B,]2 | [E,G,B,]6 z2 |] %16
V:3
 x8 | x8 | x8 | x8 | x8 | x8 | x8 | x8 | x8 | x8 | c2 c>c d2 z D | x8 | x8 | x8 | x8 | x8 |] %16

